Costumes/P-glow.svg

<?xml version="1.0" encoding="UTF-8" standalone="no"?>
<svg
   version="1.1"
   width="64.054008"
   height="79.477768"
   id="svg8"
   sodipodi:docname="P-glow.svg"
   xmlns:inkscape="http://www.inkscape.org/namespaces/inkscape"
   xmlns:sodipodi="http://sodipodi.sourceforge.net/DTD/sodipodi-0.dtd"
   xmlns="http://www.w3.org/2000/svg"
   xmlns:svg="http://www.w3.org/2000/svg">
  <defs
     id="defs12" />
  <sodipodi:namedview
     id="namedview10"
     pagecolor="#ffffff"
     bordercolor="#000000"
     borderopacity="0.25"
     inkscape:showpageshadow="2"
     inkscape:pageopacity="0.0"
     inkscape:pagecheckerboard="0"
     inkscape:deskcolor="#d1d1d1" />
  <!-- Exported by Scratch - http://scratch.mit.edu/ -->
  <g
     id="ID0.5210809488780797"
     transform="translate(0,-2.3304703e-4)">
    <g
       id="ID0.8698570188134909">
      <g
         id="ID0.6245964784175158">
        <path
           id="ID0.028471256606280804"
           fill="#00cccc"
           d="m 63.97,25.358 c -0.03,0.29 -0.07,0.57 -0.12,0.85 -1.33,6.97 -4.99,12.53 -10.59,16.1 -3.37,2.16 -7.82,3.69 -13.56,4.65 -0.02,0.01 -0.04,0.01 -0.06,0.01 0.03,0.98 0.06,2.07 0.08,3.26 5.61,0.21 8.83,3.11 10.36,5.01 1.39,1.71 2.97,4.56 2.97,8.67 0,6.59 -4.26,11.97 -10.6,13.38 -2.47,0.55 -5.16,0.68 -8,0.37 h -0.06 c -0.17,0 -0.5,0.01 -1.06,0.07 -2.94,0.33 -3.85,0.41 -4.43,0.43 -0.51,0.03 -1.83,0.15 -4.83,0.59 -3.45,0.51 -5.77,0.73 -7.53,0.73 -4.46,0 -8.16,-1.19 -11.01,-3.55 -4.81,-3.88 -6.08,-10.27 -3.15,-15.56 2.04,-3.9 4.93,-5.71 7.16,-6.55 0.96,-0.38 2,-0.68 3.1,-0.91 v -0.01 c -0.29,-1.66 -0.39,-3.63 -0.33,-6.25 v -4.17 c -0.19,-0.79 -0.35,-1.71 -0.35,-2.8 v -5.5 c -0.02,-0.26 -0.04,-0.53 -0.05,-0.8 -0.04,-0.72 -0.09,-1.81 -0.15,-3.25 -0.02,-0.68 -0.05,-1.44 -0.09,-2.27 -3.44,-0.62 -6.51,-2.33 -8.84,-4.97 -1.41,-1.6 -2.33,-3.59 -2.63,-5.71 -0.14,-0.92 -0.2,-1.83 -0.2,-2.7 0,-3.77 1.62,-7.29 4.45,-9.66 0.12,-0.1 0.23,-0.19 0.35,-0.28 3.02,-2.33 6.83,-3.67 11.64,-4.1 0.12,-0.01 0.24,-0.02 0.35,-0.03 l 6.26,-0.35 c 0.2,-0.01 0.41,-0.01 0.61,-0.01 h 6.32 c 1.95,-0.07 3.5,-0.06 4.85,0.01 0.11,0.01 0.23,0.02 0.34,0.03 3.34,0.29 7.36,1.05 12.29,2.33 0.25,0.07 0.51,0.15 0.76,0.23 0.88,0.3 1.54,0.61 4.11,1.94 2.05,1.04 4.02,2.49 5.85,4.31 3.02,2.91 4.82,6.16 5.38,9.67 0,0.05 0.01,0.1 0.02,0.16 0.47,3.29 0.57,5.03 0.39,6.63 z" />
      </g>
    </g>
    <g
       id="ID0.2951949806883931">
      <path
         id="ID0.9240860980935395"
         fill="#ffffff"
         d="m 53.042,24.149 c -0.76,3.988 -2.66,6.949 -5.697,8.884 -2.104,1.35 -5.26,2.375 -9.466,3.079 -5.144,0.88 -8.298,1.525 -9.466,1.936 v 4.573 c 0.175,1.878 0.292,5.484 0.35,10.819 0.058,3.577 0.379,6.48 0.962,8.708 0.058,0.118 0.495,0.118 1.311,0 1.106,-0.058 2.796,-0.205 5.069,-0.439 0.466,-0.117 1.165,-0.264 2.098,-0.44 1.631,-0.176 2.737,0.118 3.32,0.88 0.349,0.411 0.524,0.998 0.524,1.76 0,1.467 -0.659,2.346 -1.979,2.639 -1.319,0.294 -2.802,0.352 -4.442,0.176 -0.938,-0.116 -2.142,-0.088 -3.606,0.088 -2.111,0.235 -3.284,0.352 -3.519,0.352 -1.231,0.06 -3.24,0.295 -6.025,0.704 -2.785,0.409 -4.765,0.616 -5.937,0.616 -1.878,0 -3.227,-0.359 -4.047,-1.074 -0.703,-0.537 -0.851,-1.134 -0.439,-1.79 0.409,-0.836 0.88,-1.343 1.407,-1.521 1.173,-0.478 2.814,-0.717 4.926,-0.717 1.465,0 3.4,-0.174 5.806,-0.526 -0.118,-0.995 -0.147,-2.457 -0.088,-4.39 0,-0.467 -0.06,-1.171 -0.176,-2.108 0,-0.058 -0.044,-0.203 -0.133,-0.437 -0.088,-0.234 -0.132,-0.41 -0.132,-0.528 0,-2.166 -0.03,-3.482 -0.088,-3.951 -0.234,-0.819 -0.322,-2.369 -0.264,-4.653 0,-3.219 0,-5.003 0,-5.355 0,-0.352 -0.059,-0.717 -0.176,-1.098 -0.118,-0.379 -0.176,-0.6 -0.176,-0.658 v -5.883 c 0,1.055 -0.235,-4.564 -0.704,-16.856 0,-0.409 -0.176,-0.731 -0.527,-0.966 -0.763,0.059 -1.95,0.264 -3.562,0.615 -1.613,0.352 -2.801,0.527 -3.562,0.527 -1.467,0 -2.639,-0.497 -3.519,-1.495 -0.059,-0.409 -0.088,-0.791 -0.088,-1.144 0,-0.527 0.176,-0.937 0.527,-1.231 1.29,-0.996 3.255,-1.612 5.894,-1.847 2.052,-0.117 4.135,-0.233 6.245,-0.352 0.293,0 0.704,0 1.231,0 0.528,0 0.909,0 1.144,0 0.469,0 1.848,0 4.135,0 1.641,-0.059 2.99,-0.059 4.046,0 2.696,0.234 6.187,0.909 10.468,2.022 0.176,0.06 1.055,0.499 2.639,1.319 1.055,0.528 2.111,1.319 3.166,2.375 1.289,1.231 2.023,2.405 2.199,3.519 0.293,2.051 0.41,3.341 0.351,3.868 z m -5.277,-1.194 c -1.057,-5.008 -7.271,-7.542 -18.647,-7.602 -0.294,0 -0.734,0.178 -1.319,0.53 0,0.59 0.088,2.77 0.264,6.541 0.058,2.476 0.205,6.188 0.438,11.137 0.115,0 0.933,-0.088 2.452,-0.266 0.466,0 1.107,-0.088 1.925,-0.265 2.803,-0.471 5.634,-0.972 8.495,-1.503 3.443,-0.824 5.486,-2.68 6.129,-5.568 0.351,-1.237 0.439,-2.237 0.263,-3.004 z" />
    </g>
  </g>
</svg>

<svg version="1.1" width="65" height="80" xmlns="http://www.w3.org/2000/svg" xmlns:xlink="http://www.w3.org/1999/xlink">
  <!-- Exported by Scratch - http://scratch.mit.edu/ -->
  <g id="ID0.5210809488780797">
    <g id="ID0.8698570188134909">
      <g id="ID0.6245964784175158">
        <path id="ID0.028471256606280804" fill="#00CCCC" d="M 63.970 25.358 C 63.940 25.648 63.900 25.928 63.850 26.208 C 62.520 33.178 58.860 38.738 53.260 42.308 C 49.890 44.468 45.440 45.998 39.700 46.958 C 39.680 46.968 39.660 46.968 39.640 46.968 C 39.670 47.948 39.700 49.038 39.720 50.228 C 45.330 50.438 48.550 53.338 50.080 55.238 C 51.470 56.948 53.050 59.798 53.050 63.908 C 53.050 70.498 48.790 75.878 42.450 77.288 C 39.980 77.838 37.290 77.968 34.450 77.658 L 34.390 77.658 C 34.220 77.658 33.890 77.668 33.330 77.728 C 30.390 78.058 29.480 78.138 28.900 78.158 C 28.390 78.188 27.070 78.308 24.070 78.748 C 20.620 79.258 18.300 79.478 16.540 79.478 C 12.080 79.478 8.380 78.288 5.530 75.928 C 0.720 72.048 -0.550 65.658 2.380 60.368 C 4.420 56.468 7.310 54.658 9.540 53.818 C 10.500 53.438 11.540 53.138 12.640 52.908 L 12.640 52.898 C 12.350 51.238 12.250 49.268 12.310 46.648 L 12.310 42.478 C 12.120 41.688 11.960 40.768 11.960 39.678 L 11.960 34.178 C 11.940 33.918 11.920 33.648 11.910 33.378 C 11.870 32.658 11.820 31.568 11.760 30.128 C 11.740 29.448 11.710 28.688 11.670 27.858 C 8.230 27.238 5.160 25.528 2.830 22.888 C 1.420 21.288 0.500 19.298 0.200 17.178 C 0.060 16.258 0 15.348 0 14.478 C 0 10.708 1.620 7.188 4.450 4.818 C 4.570 4.718 4.680 4.628 4.800 4.538 C 7.820 2.208 11.630 0.868 16.440 0.438 C 16.560 0.428 16.680 0.418 16.790 0.408 L 23.050 0.058 C 23.250 0.048 23.460 0.048 23.660 0.048 L 29.980 0.048 C 31.930 -0.022 33.480 -0.012 34.830 0.058 C 34.940 0.068 35.060 0.078 35.170 0.088 C 38.510 0.378 42.530 1.138 47.460 2.418 C 47.710 2.488 47.970 2.568 48.220 2.648 C 49.100 2.948 49.760 3.258 52.330 4.588 C 54.380 5.628 56.350 7.078 58.180 8.898 C 61.200 11.808 63 15.058 63.560 18.568 C 63.560 18.618 63.570 18.668 63.580 18.728 C 64.050 22.018 64.150 23.758 63.970 25.358 Z "/>
      </g>
    </g>
    <g id="ID0.2951949806883931">
      <path id="ID0.9240860980935395" fill="#FFFFFF" d="M 53.042 24.149 C 52.282 28.137 50.382 31.098 47.345 33.033 C 45.241 34.383 42.085 35.408 37.879 36.112 C 32.735 36.992 29.581 37.637 28.413 38.048 L 28.413 42.621 C 28.588 44.499 28.705 48.105 28.763 53.440 C 28.821 57.017 29.142 59.920 29.725 62.148 C 29.783 62.266 30.220 62.266 31.036 62.148 C 32.142 62.090 33.832 61.943 36.105 61.709 C 36.571 61.592 37.270 61.445 38.203 61.269 C 39.834 61.093 40.940 61.387 41.523 62.149 C 41.872 62.560 42.047 63.147 42.047 63.909 C 42.047 65.376 41.388 66.255 40.068 66.548 C 38.749 66.842 37.266 66.900 35.626 66.724 C 34.688 66.608 33.484 66.636 32.020 66.812 C 29.909 67.047 28.736 67.164 28.501 67.164 C 27.270 67.224 25.261 67.459 22.476 67.868 C 19.691 68.277 17.711 68.484 16.539 68.484 C 14.661 68.484 13.312 68.125 12.492 67.410 C 11.789 66.873 11.641 66.276 12.053 65.620 C 12.462 64.784 12.933 64.277 13.460 64.099 C 14.633 63.621 16.274 63.382 18.386 63.382 C 19.851 63.382 21.786 63.208 24.192 62.856 C 24.074 61.861 24.045 60.399 24.104 58.466 C 24.104 57.999 24.044 57.295 23.928 56.358 C 23.928 56.300 23.884 56.155 23.795 55.921 C 23.707 55.687 23.663 55.511 23.663 55.393 C 23.663 53.227 23.633 51.911 23.575 51.442 C 23.341 50.623 23.253 49.073 23.311 46.789 C 23.311 43.570 23.311 41.786 23.311 41.434 C 23.311 41.082 23.252 40.717 23.135 40.336 C 23.017 39.957 22.959 39.736 22.959 39.678 L 22.959 33.795 C 22.959 34.850 22.724 29.231 22.255 16.939 C 22.255 16.530 22.079 16.208 21.728 15.973 C 20.965 16.032 19.778 16.237 18.166 16.588 C 16.553 16.940 15.365 17.115 14.604 17.115 C 13.137 17.115 11.965 16.618 11.085 15.620 C 11.026 15.211 10.997 14.829 10.997 14.476 C 10.997 13.949 11.173 13.539 11.524 13.245 C 12.814 12.249 14.779 11.633 17.418 11.398 C 19.470 11.281 21.553 11.165 23.663 11.046 C 23.956 11.046 24.367 11.046 24.894 11.046 C 25.422 11.046 25.803 11.046 26.038 11.046 C 26.507 11.046 27.886 11.046 30.173 11.046 C 31.814 10.987 33.163 10.987 34.219 11.046 C 36.915 11.280 40.406 11.955 44.687 13.068 C 44.863 13.128 45.742 13.567 47.326 14.387 C 48.381 14.915 49.437 15.706 50.492 16.762 C 51.781 17.993 52.515 19.167 52.691 20.281 C 52.984 22.332 53.101 23.622 53.042 24.149 Z M 47.765 22.955 C 46.708 17.947 40.494 15.413 29.118 15.353 C 28.824 15.353 28.384 15.531 27.799 15.883 C 27.799 16.473 27.887 18.653 28.063 22.424 C 28.121 24.900 28.268 28.612 28.501 33.561 C 28.616 33.561 29.434 33.473 30.953 33.295 C 31.419 33.295 32.060 33.207 32.878 33.030 C 35.681 32.559 38.512 32.058 41.373 31.527 C 44.816 30.703 46.859 28.847 47.502 25.959 C 47.853 24.722 47.941 23.722 47.765 22.955 Z "/>
    </g>
  </g>
</svg>
